!!!!SEGMENT: pl-cz--iii-506--005_neumann-wawrzyniec--vesperae-c-laudate-dominum.krn
!!!cenid: 17xx:244
!!!COM: Neumann, Wawrzyniec
!!!COM-rismid: pe30107352
!!!CDT: ~1700-~1799
!!!CNT:
!!!OPR: Vesperae C
!!!OTL: Laudate Dominum
!!!OMV: 005
!!!PDT:
!!!AGN: Sacred
!!!SMS-siglum: PL-CZ
!!!SMS-shelfmark: III-506
!!!SMS-shelfwork: 001-005 M
!!!NIFC-rismid:
!!!URL-scan: http://repozytorium.nifc.pl/skany/pl-cz-nut--iii-506
!!!ONB-nifc: UWAGA: części Vesperae: Dixit, Confitebor, Beatus, Laudate pueri, Laudate Dominum, Magnificat
!!!key:
**kern	**fba	**kern	**dynam	**kern	**dynam	**kern	**text	**kern	**text	**kern	**text	**kern	**text	**kern	**kern
*part9	*	*part8	*part8	*part7	*part7	*part6	*part6	*part5	*part5	*part4	*part4	*part3	*part3	*part2	*part1
*staff9	*	*staff8	*	*staff7	*	*staff6	*staff6	*staff5	*staff5	*staff4	*staff4	*staff3	*staff3	*staff2	*staff1
*Iorgan	*	*Ivioln	*	*Ivioln	*	*Iempty	*	*Itenor	*	*Ialto	*	*Ivox	*	*Iempty	*Iempty
*I"Organo.	*	*I"Violino Secundo.	*	*I"Violino Primo.	*	*I"Baſso. Conc.	*	*I"Tenore, ad lib	*	*I"Alto. Conc.	*	*I"Canto Conc.,	*	*I"Clarino Secondo.	*I"Clarino Primo.
*I'Org	*	*I'Vn II	*	*I'Vn I	*	*I'B	*	*I'T	*	*I'A	*	*I'C	*	*I'Clar II	*I'Clar I
*clefF4	*	*clefG2	*	*clefG2	*	*clefF4	*	*clefC4	*	*clefC3	*	*clefC1	*	*clefG2	*clefG2
*	*	*Trd0c0	*	*Trd0c0	*	*	*	*	*	*	*	*	*	*	*
*k[]	*	*k[]	*	*k[]	*	*k[]	*	*k[]	*	*k[]	*	*k[]	*	*k[]	*k[]
*C:	*	*C:	*	*C:	*	*C:	*	*C:	*	*C:	*	*C:	*	*C:	*C:
*M4/4	*	*M4/4	*	*M4/4	*	*M4/4	*	*M4/4	*	*M4/4	*	*M4/4	*	*M4/4	*M4/4
*met(c)	*	*met(c)	*	*met(c)	*	*met(c)	*	*met(c)	*	*met(c)	*	*met(c)	*	*met(c)	*met(c)
=1	=1	=1	=1	=1	=1	=1	=1	=1	=1	=1	=1	=1	=1	=1	=1
!LO:TX:b:i:t=Laudate Dominum.	!	!LO:TX:b:i:t=Laudate Dominum.	!	!	!	!	!	!	!	!	!	!	!	!	!
!LO:TX:a:i:t=mod&colon;	!	!LO:TX:a:i:t=mod&colon;	!	!	!	!	!	!	!	!	!	!	!	!	!
!LO:TX:a:i:t=T.	!	!	!LO:DY:a:t=for:	!LO:TX:b:i:t=Laudate Dominum.	!	!	!	!	!	!	!	!LO:TX:a:i:t=T.	!	!LO:TX:a:i:t=Laud&colon; Dom&colon; Tacet	!LO:TX:a:i:t=Laud&colon; Dom&colon; Tacet
4C/	.	4c/	f	8r	.	4r	.	4r	.	4r	.	8r	.	1ryy	1ryy
!	!	!	!	!LO:SIC:s:o=:v:f = for&colon;	!LO:DY:a	!	!	!	!	!	!	!	!	!	!
.	.	.	.	8g/	f	.	.	.	.	.	.	8g\	Lau-	.	.
8r	.	8r	.	4cc\	.	8r	.	8r	.	8r	.	[4cc\	-da-	.	.
8C/	.	8e/	.	.	.	8C/	Lau-	8e\	Lau-	8g\	Lau-	.	.	.	.
4G\	4 3	4d/	.	(16cc\LL	.	4G\	-da,	4d\	-da	4g\	-da	16cc\LL]	.	.	.
.	.	.	.	16b\)	.	.	.	.	.	.	.	16b\	.	.	.
.	.	.	.	16g\|	.	.	.	.	.	.	.	16g\	.	.	.
.	.	.	.	16a\JJ|	.	.	.	.	.	.	.	16a\JJ	.	.	.
4r	.	4r	.	16b\LL|	.	4r	.	4r	.	4r	.	16b\LL	.	.	.
.	.	.	.	16cc\|	.	.	.	.	.	.	.	16cc\	.	.	.
.	.	.	.	16dd\|	.	.	.	.	.	.	.	16dd\	.	.	.
.	.	.	.	16ee\JJ|	.	.	.	.	.	.	.	16ee\JJ	.	.	.
=2	=2	=2	=2	=2	=2	=2	=2	=2	=2	=2	=2	=2	=2	=2	=2
*	*	*	*	*2\right	*	*	*	*	*	*	*	*	*	*	*
8r	.	8r	.	2ff\	.	8r	.	8r	.	8r	.	8ff\	.	1ryy	1ryy
16d\LL	.	16B/LL	.	.	.	16d\LL	Lau-	8d\	Lau-	8g\	lau-	8ff\	-te	.	.
16c\JJ	.	16c/JJ	.	.	.	16c\JJ	.	.	.	.	.	.	.	.	.
16B\LL	.	16d/LL	.	.	.	16B\LL	-da-	8d\	-da-	8g\	-da-	8.ff\	Do-	.	.
16A\J	.	16c/J	.	.	.	16A\JJ	.	.	.	.	.	.	.	.	.
8G\J	.	8B/J	.	.	.	8G\	-te	8d\	-te	8g\	-te	.	.	.	.
.	.	.	.	.	.	.	.	.	.	.	.	16ff\	-mi-	.	.
4c\	.	4G/	.	8ee\L	.	16c\	Do-	16c\	Do-	16g\	Do-	4ee\	-num,	.	.
.	.	.	.	.	.	16c\	-mi-	16c\	-mi-	16g\	-mi-	.	.	.	.
.	.	.	.	8gg\J	.	8C/	-num	8c\	-num,	8g\	-num	.	.	.	.
16r	.	16r	.	4b-X\	.	16r	.	8r	.	8b-X\	om-	8gg\	om-	.	.
16C/LL	6	16ee\LL	.	.	.	16C\LL	om-	.	.	.	.	.	.	.	.
16D\	7	16ff\	.	.	.	16D\JJ	.	16c\	om-	8b-\	-nes	8gg\	-nes	.	.
16E\JJ	.	16gg\JJ	.	.	.	16E\	-nes	16c\	-nes	.	.	.	.	.	.
=3	=3	=3	=3	=3	=3	=3	=3	=3	=3	=3	=3	=3	=3	=3	=3
4F\	.	4aa\	.	8r	.	8F\	gen-	8c\	gen-	8a\	gen-	8gg\	gen-	1ryy	1ryy
.	.	.	.	8ff\	.	8F\	-tes	8c\	-tes	8a\	-tes	8ff\,	-tes,	.	.
16r	.	16r	.	4a/	.	16r	.	8r	.	4a\	Lau-	4ff\	Lau-	.	.
16BBn/LL	7	16d/LL	.	.	.	16BB/LL	Lau-	.	.	.	.	.	.	.	.
16C/	.	16e/	.	.	.	16C/	.	8B\	lau-	.	.	.	.	.	.
16D\JJ	.	16f/JJ	.	.	.	16D\JJ	.	.	.	.	.	.	.	.	.
4E\	.	4g/	.	8r	.	8E\	-da-	8B\	-da-	8g\	-da-	8ff\	-da-	.	.
.	.	.	.	8ee\	.	8E\	-te	8B\	-te	8g\	-te	8ee\,	-te	.	.
16r	.	16r	.	4g/	.	8C/	e-	8A\	e-	8g\	e-	8ee\	e-	.	.
16AA/LL	7	16cc\LL	.	.	.	.	.	.	.	.	.	.	.	.	.
16BB/	.	16dd\	.	.	.	16BB/LL	-um	8A\	-um	8g\	-um	8ee\	-um	.	.
16C/JJ	.	16ee\JJ	.	.	.	16C/JJ	.	.	.	.	.	.	.	.	.
!LO:LB:g=original	!	!LO:LB:g=original	!	!	!LO:LB:g=original	!	!	!	!	!	!	!	!	!	!
=4	=4	=4	=4	=4	=4	=4	=4	=4	=4	=4	=4	=4	=4	=4	=4
4D/	.	4ff\	.	8r	.	8D/	om-	8A/	om-	8f\	om-	8ee\	om-	1ryy	1ryy
.	.	.	.	8dd\	.	8D/	-nes	8A/	-nes	8f\	-nes	8dd\	-nes	.	.
16r	.	16r	.	4f/	.	8BB/	po-	8.G/	Po-	8.f\	Po-	8.dd\	Po-	.	.
16GG/LL	7	16B/LL	.	.	.	.	.	.	.	.	.	.	.	.	.
16AA/	.	16c/	.	.	.	16AA/LL	-pu-	.	.	.	.	.	.	.	.
16BB/JJ	.	16d/JJ	.	.	.	16BB/JJ	.	16G/	-pu-	16f\	-pu-	16dd\	-pu-	.	.
!	!	!	!	!LO:TX:t=P:problem=mixed beam	!	!	!	!	!	!	!	!	!	!	!
!	!	!	!	!	!	!	!	!	!	!LO:LB:g=original	!	!LO:LB:g=original	!	!	!
4C/	.	4e/	.	16e/LL	.	4C/	-li,	4G/	-li,	4e\	-li,	4cc\	-li,	.	.
.	.	.	.	16gg\	.	.	.	.	.	.	.	.	.	.	.
.	.	.	.	16aa\	.	.	.	.	.	.	.	.	.	.	.
.	.	.	.	16bb\JJ	.	.	.	.	.	.	.	.	.	.	.
8r	.	8r	.	4ccc\	.	8r	.	8r	.	8r	.	8r	.	.	.
8A\	7	8ee\	.	.	.	16A\	quo-	16c\	quo-	16g\	Quo-	16ee\	Quo-	.	.
.	.	.	.	.	.	16A\	-ni-	16c\	-ni-	16g\	-ni-	16ee\	-ni-	.	.
!	!	!	!	!LO:LB:g=original	!	!	!	!LO:LB:g=original	!	!	!	!	!	!	!
=5	=5	=5	=5	=5	=5	=5	=5	=5	=5	=5	=5	=5	=5	=5	=5
4D\	7 #	4f#X/	.	16r	.	4D\	-am,	4A\	-am,	4f#X\	-am	4dd\	-am	1ryy	1ryy
.	.	.	.	16ff#X\LL	.	.	.	.	.	.	.	.	.	.	.
.	.	.	.	16gg\	.	.	.	.	.	.	.	.	.	.	.
.	.	.	.	16aa\JJ	.	.	.	.	.	.	.	.	.	.	.
8r	.	8r	.	4bb\	.	8r	.	8r	.	8r	.	8r	.	.	.
8G\	7	8dd\	.	.	.	16G\	con-	16B\	con-	16f#X\	con-	16dd\	con-	.	.
.	.	.	.	.	.	16G\	-fir-	16B\	-fir-	16f#\	-fir-	16dd\	-fir-	.	.
4C/	7	4e/	.	16r	.	8C/	-ma-	8c\	-ma-	8e\	-ma-	8ee\	-ma-	.	.
.	.	.	.	16ee\LL	.	.	.	.	.	.	.	.	.	.	.
.	.	.	.	16ff#X\	.	16C/	-ta	16c\	-ta	16g\	-ta	16ee\	-ta	.	.
.	.	.	.	16gg\JJ	.	16C/	est	16c\	est	16g\	est	16ee\,	est	.	.
8r	.	8r	.	8aa\L	.	8c\	Su-	8c\	Su-	8a\	Su-	8ee\	Su-	.	.
[8c\	.	8ee\	.	8gg\J	.	8c\	-per	8c\	-per	8g\	-per	8ee\	-per	.	.
=6	=6	=6	=6	=6	=6	=6	=6	=6	=6	=6	=6	=6	=6	=6	=6
8c\L]	#4 2	8a\L	.	16ff#X\LL	.	8c\	nos	8A\	nos	8f#X\	nos	8dd\,	nos	1ryy	1ryy
.	.	.	.	16dd\J	.	.	.	.	.	.	.	.	.	.	.
8B\	6	8dd\J	.	8gg\J	.	8B\	Mi-	8d\	mi-	8g\	Mi-	8dd\	Mi-	.	.
8c\	6 5	16ee\LL	.	8a\L	.	8c\	-se-	8c\	-e-	8g\	-se-	8ee\	-se-	.	.
.	.	16cc\J	.	.	.	.	.	.	.	.	.	.	.	.	.
8d\J	#	8a\J	.	8ff#\J	.	8d\	-ri-	8A\	-ri-	8f#\	-ri-	8cc\	-ri-	.	.
!	!	!	!	!LO:TX:t=P:problem=mixed beam	!	!	!	!	!	!	!	!	!	!	!
8G\L	.	8b\L	.	16gg\LL	.	8G\	-cor-	16B\	-cor-	8g\	-cor-	8b\	-cor-	.	.
.	.	.	.	16g/	.	.	.	16d\	-di-	.	.	.	.	.	.
8E\	.	16b\L	.	16b\	.	16E\	-di-	8e\	-a	16g\	-di-	16b\	-di-	.	.
.	.	16g\JJ	.	16g\JJ	.	16E\	-a	.	.	16g\	-a	16b\	-a	.	.
8C\	6 5	(8g/L	.	8A/L	.	8C/L	ej-	8e\L	e-	(8g\L	e-	4a\	e-	.	.
8D\J	#	8f#X/J)	.	8f#X/J	.	8D\J	.	8d\J	.	8f#X\J)	.	.	.	.	.
*	*	*	*	*	*	*custos	*	*	*	*	*	*	*	*	*
!	!	!	!	!	!	!LO:LB:g=original	!	!	!	!	!	!	!	!	!
=7	=7	=7	=7	=7	=7	=7	=7	=7	=7	=7	=7	=7	=7	=7	=7
!	!	!	!	!LO:TX:t=P:problem=mixed beam	!	!	!	!	!	!	!	!	!	!	!
4GG/	.	4B/	.	8g/L	.	4GG/	-us,	4d\	-jus,	4g\	-jus.	4b\	-jus,	1ryy	1ryy
.	.	.	.	8bb\J	.	.	.	.	.	.	.	.	.	.	.
4r	.	16r	.	4ee\	.	4r	.	4r	.	4r	.	4r	.	.	.
.	.	16cc\LL	.	.	.	.	.	.	.	.	.	.	.	.	.
.	.	16.b\	.	.	.	.	.	.	.	.	.	.	.	.	.
.	.	32a#X\JJk	.	.	.	.	.	.	.	.	.	.	.	.	.
!	!	!LO:LB:g=original	!	!	!	!	!	!	!	!	!	!	!	!	!
2r	.	8B/L	.	8r	.	2r	.	2r	.	2r	.	2r	.	.	.
.	.	8an/J	.	16dd#X\LL	.	.	.	.	.	.	.	.	.	.	.
.	.	.	.	16ff#X\JJ	.	.	.	.	.	.	.	.	.	.	.
.	.	16r	.	4aa\	.	.	.	.	.	.	.	.	.	.	.
.	.	16f#X/LL	.	.	.	.	.	.	.	.	.	.	.	.	.
.	.	16.e/	.	.	.	.	.	.	.	.	.	.	.	.	.
.	.	32d#X/JJk	.	.	.	.	.	.	.	.	.	.	.	.	.
!	!	!	!	!	!	!	!	!	!	!LO:LB:g=original	!	!	!	!	!
=8	=8	=8	=8	=8	=8	=8	=8	=8	=8	=8	=8	=8	=8	=8	=8
!LO:TX:a:i:t=T&colon;	!	!LO:TX:t=P:problem=mixed beam	!	!	!	!	!	!	!	!	!	!	!	!	!
16r	.	16e/LL	.	4r	.	16r	.	8r	.	8r	.	8r	.	1ryy	1ryy
16c\LL	.	16ee\	.	.	.	16c\	et	.	.	.	.	.	.	.	.
16B\	.	16dd\	.	.	.	16B\	ve-	8c\	et	8g\	et	8ee\	et	.	.
16A\JJ	.	16cc\JJ	.	.	.	16A\	-ri-	.	.	.	.	.	.	.	.
4G#X\	6	4b\	.	16r	.	4G#X\	-tas	16d\	ve-	16b\	ve-	16ee\	ve-	.	.
.	.	.	.	16ee\LL	.	.	.	16d\	-ri-	16b\	-ri-	16ee\	-ri-	.	.
.	.	.	.	16gg#X\	.	.	.	8d\	-tas	8b\	-tas	8ee\	-tas	.	.
.	.	.	.	16bb\JJ	.	.	.	.	.	.	.	.	.	.	.
!LO:LB:g=original	!	!	!LO:LB:g=original	!	!	!	!	!	!	!	!	!	!	!	!
16r	.	16r	.	4ddd\	.	16r	.	16d\	Do-	16b\	Do-	16ee\	Do-	.	.
16G#X\LL	.	16B/LL	.	.	.	16G#X\LL	Do-	16B\	-mi-	16b\	-mi-	16ee\	-mi-	.	.
16F\	.	16An/	.	.	.	16F\JJ	.	8e\	-ni	8b\	-ni	8dd\	-ni	.	.
16E\JJ	.	16G#X/JJ	.	.	.	16E\	-mi-	.	.	.	.	.	.	.	.
!	!	!	!	!	!	!	!	!	!	!	!	!LO:LB:g=original	!	!	!
4A\	9 4	4ccc\	.	16r	.	4A\	-ni	8e\	ma-	8b\	ma-	8dd\	ma-	.	.
.	.	.	.	16ee\LL	.	.	.	.	.	.	.	.	.	.	.
.	8 3	.	.	16aa\	.	.	.	8e\	-net	8a\	-net	8cc\	-net,	.	.
.	.	.	.	16ccc\JJ	.	.	.	.	.	.	.	.	.	.	.
=9	=9	=9	=9	=9	=9	=9	=9	=9	=9	=9	=9	=9	=9	=9	=9
16r	.	8r	.	8eee\L	.	16r	.	16c\LL	ma-	8e\	ma-	8a\	ma-	1ryy	1ryy
16C/LL	.	.	.	.	.	16C/LL	ma-	16A\JJ	.	.	.	.	.	.	.
16BB/	.	4aa\	.	8aa\J	.	16BB/	.	8A/	-net	8c\	-net	8ee\	-net	.	.
16AA/JJ	.	.	.	.	.	16AA/JJ	.	.	.	.	.	.	.	.	.
!	!	!	!	!LO:SIC:s:o=:v:tr = t&colon;	!	!	!	!	!	!	!	!	!	!	!
8D\L	6 5	.	.	4bb\t	.	8D\	-net	8A/	in	8B/	in	8dd\	in	.	.
8E\J	#	8gg#X\	.	.	.	16E\	in	8G#X/	ae-	8B/	ae-	8dd\	ae-	.	.
.	.	.	.	.	.	16E\	ae-	.	.	.	.	.	.	.	.
!	!	!LO:TX:t=P:problem=mixed beam	!	!	!	!	!	!	!	!	!	!	!	!	!
!	!	!	!	!	!	!	!	!LO:LB:g=original	!	!	!	!	!	!	!
16F\LL	.	16aa\LL	.	8aa\L	.	16F\LL	-ter-	8A\L	-ter-	16e\LL	-ter-	(4cc\	-ter-	.	.
16C\	.	16a/JJ	.	.	.	16C/	.	.	.	16a\JJ	.	.	.	.	.
16BB\	.	4a/	.	8cc\J	.	16BB/	.	8e\	.	4a\	.	.	.	.	.
16AA\JJ	.	.	.	.	.	16AA/JJ	.	.	.	.	.	.	.	.	.
!	!	!	!	!LO:SIC:s:o=:v:tr = t&colon;	!	!	!	!	!	!	!	!	!	!	!
8D\L	6 5	.	.	4b\t	.	8D\L	.	8f\	.	.	.	4b\)	.	.	.
8E\J	#	8g#X/	.	.	.	8E\J	.	8e\J	.	8g#X\	.	.	.	.	.
=10	=10	=10	=10	=10	=10	=10	=10	=10	=10	=10	=10	=10	=10	=10	=10
4AA/	.	4e/	.	8a\L	.	4AA/	-num,	4e\	-num,	4a\	-num,	4cc\	-num,	1ryy	1ryy
.	.	.	.	8cc\J	.	.	.	.	.	.	.	.	.	.	.
16r	.	16r	.	4gg\	.	16r	.	4r	.	4r	.	8r	.	.	.
16B-X\LL	6	16dd\LL	.	.	.	16B-X\LL	Glo-	.	.	.	.	.	.	.	.
16A\	.	16cc\	.	.	.	16A\	.	.	.	.	.	[8cc\	glo-	.	.
16G\JJ	.	16b-X\JJ	.	.	.	16G\JJ	.	.	.	.	.	.	.	.	.
*	*	*	*	*	*	*custos	*	*	*	*	*	*	*	*	*
!	!	!	!	!	!	!LO:LB:g=original	!	!	!	!	!	!	!	!	!
4A\	7	4cc\	.	16r	.	8A\	.	2r	.	4r	.	8cc\]	.	.	.
.	.	.	.	16cc\LL	.	.	.	.	.	.	.	.	.	.	.
.	6	.	.	16dd\	.	16A\	-ri-	.	.	.	.	16cc\	-ri-	.	.
.	.	.	.	16ee\JJ	.	16A\	-a	.	.	.	.	16cc\	-a	.	.
8r	.	8r	.	8ff\L	.	8A\	Pa-	.	.	8r	.	8cc\	Pa-	.	.
8F\	.	8a/	.	8a\J	.	16F\	-tri	.	.	8a\	et	16cc\,	-tri	.	.
.	.	.	.	.	.	16F\	et	.	.	.	.	16cc\	et	.	.
!	!	!LO:LB:g=original	!	!	!	!	!	!	!	!LO:LB:g=original	!	!	!	!	!
=11	=11	=11	=11	=11	=11	=11	=11	=11	=11	=11	=11	=11	=11	=11	=11
8F\L	6	8a/L	.	(16dd\LL	.	16F\	Fi-	1r	.	16a\	fi-	16dd\	Fi-	1ryy	1ryy
.	.	.	.	16cc#X\)	.	16F\	-li-	.	.	16a\	-li-	16cc#X\	-li-	.	.
8F\	.	8a/	.	(16ee\	.	8F\	-o	.	.	8a\	-o	8dd\,	-o	.	.
.	.	.	.	16dd\JJ)	.	.	.	.	.	.	.	.	.	.	.
8F\	.	8a/	.	(16ff\LL	.	8F\	et	.	.	8a\	et	8dd\	et	.	.
.	.	.	.	16ee\)	.	.	.	.	.	.	.	.	.	.	.
8F\J	.	8a/J	.	(16gg\	.	8F\	Spi-	.	.	8a\	Spi-	8dd\	Spi-	.	.
.	.	.	.	16ff\JJ)	.	.	.	.	.	.	.	.	.	.	.
!	!	!LO:TX:t=P:problem=mixed beam	!	!	!	!	!	!	!	!	!	!	!	!	!
8F\L	.	16a/LL	.	8aa\	.	8F\	-ri-	.	.	8a\	-ri-	8dd\	-ri-	.	.
.	.	16aa\	.	.	.	.	.	.	.	.	.	.	.	.	.
8F\	.	16a/	.	4dd\	.	16F\	-tu-	.	.	16a\	-tu-	16dd\	-tu-	.	.
.	.	16aa\JJ	.	.	.	16F\	-i	.	.	16a\	-i	16dd\	-i	.	.
!	!	!LO:TX:t=P:problem=mixed beam	!	!	!	!	!	!	!	!	!	!	!	!	!
8F#X\	.	16a/LL	.	.	.	4F#X\	San-	.	.	4a\	San-	(8dd\L	San-	.	.
.	.	16aa\	.	.	.	.	.	.	.	.	.	.	.	.	.
8F#\J	5	16a/	.	8ccn\	.	.	.	.	.	.	.	8cc#\J)	.	.	.
.	.	16aa\JJ	.	.	.	.	.	.	.	.	.	.	.	.	.
=12	=12	=12	=12	=12	=12	=12	=12	=12	=12	=12	=12	=12	=12	=12	=12
4G\	n	4dd\	.	8b\L	.	4G\	-cto,	4r	.	4g\	-cto,	4b\	-cto,	1ryy	1ryy
.	.	.	.	8ddd\J	.	.	.	.	.	.	.	.	.	.	.
16r	.	16r	.	4ff\	.	8r	.	8r	.	8r	.	8r	.	.	.
16BB/LL	.	16dd\LL	.	.	.	.	.	.	.	.	.	.	.	.	.
16AA/	.	16cc\	.	.	.	16A\	Si-	16f\	Si-	16g\	Si-	16dd\	Si-	.	.
16GG/JJ	.	16bn\JJ	.	.	.	16G\	-cut	16f\	-cut	16g\	-cut	16dd\	-cut	.	.
!LO:LB:g=original	!	!	!LO:LB:g=original	!	!	!	!	!	!	!	!	!	!	!	!
4C/	.	4g/	.	8ee\L	.	8c\	e-	8e\	e-	8g\	e-	16dd\LL	e-	.	.
.	.	.	.	.	.	.	.	.	.	.	.	16cc\JJ	.	.	.
.	.	.	.	8ddd\J	.	8G\	-rat	8B\	-rat	8g\	-rat,	8ff\	-rat,	.	.
16r	.	16r	.	(4ff\	.	8r	.	8r	.	8r	.	8r	.	.	.
16B\LL	.	16d/LL	.	.	.	.	.	.	.	.	.	.	.	.	.
16A\	.	16c/	.	.	.	16A\	in	16f\	in	16g\	in	16dd\	in	.	.
16G\JJ	.	16B/JJ	.	.	.	16G\	prin-	16f\	prin-	16g\	prin-	16dd\	prin-	.	.
*	*	*	*	*	*	*custos	*	*	*	*	*	*	*	*	*
!	!	!	!	!	!	!LO:LB:g=original	!	!	!	!	!	!LO:LB:g=original	!	!	!
=13	=13	=13	=13	=13	=13	=13	=13	=13	=13	=13	=13	=13	=13	=13	=13
4c\	.	4G/	.	8ee\L)	.	16c\	-ci-	16e\	-ci-	16g\	-ci-	16dd\	-ci-	1ryy	1ryy
.	.	.	.	.	.	16c\	-pi-	16e\	-pi-	16g\	-pi-	16cc\	-pi-	.	.
.	.	.	.	8ccc\J	.	16c\	-o	16e\	-o	16g\	-o	16cc\,	-o	.	.
.	.	.	.	.	.	16c\	et	16c\	et	16e\	et	16cc\	et	.	.
8r	.	8r	.	4ee-X\	.	8c\	nunc	8c\	nunc	8a\	nunc	8ee-X\	nunc	.	.
8c\	-	8a/	.	.	.	8c\	et	8c\	et	8a\	et	8ee-\	et	.	.
4F#X\	-7	4A/	.	16r	.	8F#X\	Sem-	8c\	Sem-	8a\	Sem-	8ee-\	Sem-	.	.
.	.	.	.	16cc\LL|	.	.	.	.	.	.	.	.	.	.	.
.	.	.	.	16bn\|	.	8F#\	-per	8c\	-per	8a\	-per	8ee-\	-per	.	.
.	.	.	.	16a\JJ|	.	.	.	.	.	.	.	.	.	.	.
16r	.	16r	.	4ee-\	.	8F#\	et	8.c\	et	8.a\	et	8.ee-\	et	.	.
16c\LL	-	16aa\LL	.	.	.	.	.	.	.	.	.	.	.	.	.
16A\	.	16cc\	.	.	.	8F#\	in	.	.	.	.	.	.	.	.
16G\JJ	.	16bn\JJ	.	.	.	.	.	16c\	in	16a\	in	16ee-\	in	.	.
!	!	!	!	!	!	!	!	!	!	!LO:LB:g=original	!	!	!	!	!
=14	=14	=14	=14	=14	=14	=14	=14	=14	=14	=14	=14	=14	=14	=14	=14
4F#X\	-7	4a/	.	16r	.	16F#X\	Sae-	16c\	Sae-	16a\	Sae-	16ee-X\	Sae-	1ryy	1ryy
.	.	.	.	16ee-X\LL	.	16F#\	-cu-	16c\	-cu-	16a\	-cu-	16ee-\	-cu-	.	.
.	_	.	.	16dd\	.	8F#\	-la	8c\	-la	8a\	-la	8ee-\	-la	.	.
.	.	.	.	16cc\JJ	.	.	.	.	.	.	.	.	.	.	.
16r	.	16r	.	4ccc\	.	8.F#\	sae-	8.c\	Sae-	8a\	Sae-	8ee-\	Sae-	.	.
16F#X\LL	.	16aa\LL	.	.	.	.	.	.	.	.	.	.	.	.	.
16E\	.	16gg\	.	.	.	.	.	.	.	8a\	-cu-	8ee-\	-cu-	.	.
16D\JJ	.	16ff#X\JJ	.	.	.	16F#\	-cu-	16c\	-cu-	.	.	.	.	.	.
!	!	!	!	!	!	!	!	!LO:LB:g=original	!	!	!	!	!	!	!
4G\	n.	4dd\	.	16r	.	8G\	-lo-	8d\	-lo-	8b\	-lo-	8dd\	-lo-	.	.
.	.	.	.	16bbn\LL	.	.	.	.	.	.	.	.	.	.	.
.	.	.	.	16ccc\	.	8G\	-rum,	16G/LL	-rum	8b\	-rum	8dd\	-rum	.	.
.	.	.	.	16ddd\JJ	.	.	.	16B\JJ	.	.	.	.	.	.	.
16r	.	16r	.	4ff\	.	16r	.	4B\	a-	4g\	a-	4dd\	a-	.	.
16BB/LL	.	16d/LL	.	.	.	16BB/LL	a-	.	.	.	.	.	.	.	.
16C/	.	16e/	.	.	.	16C/	.	.	.	.	.	.	.	.	.
16D\JJ	.	16fn/JJ	.	.	.	16D\JJ	.	.	.	.	.	.	.	.	.
!	!	!LO:LB:g=original	!	!	!	!	!	!	!	!	!	!	!	!	!
=15	=15	=15	=15	=15	=15	=15	=15	=15	=15	=15	=15	=15	=15	=15	=15
4GG/	7	4B/	.	16r	.	4GG/	-men	4B\	-men.	4g\	-men	4dd\	-men,	1ryy	1ryy
.	.	.	.	16bb\LL	.	.	.	.	.	.	.	.	.	.	.
.	.	.	.	16ccc\	.	.	.	.	.	.	.	.	.	.	.
.	.	.	.	16ddd\JJ	.	.	.	.	.	.	.	.	.	.	.
16r	.	16r	.	[4ff\	.	16r	.	4r	.	8r	.	8r	.	.	.
16B\LL	.	16dd\LL	.	.	.	16B\LL	a-	.	.	.	.	.	.	.	.
16c\	.	16cc\	.	.	.	16c\	.	.	.	[8f\	a-	[8dd\	a-	.	.
16d\JJ	.	16b\JJ	.	.	.	16d\JJ	.	.	.	.	.	.	.	.	.
*	*	*	*	*	*	*	*	*	*ij	*	*	*	*	*	*
*	*	*	*	*	*	*custos	*	*	*	*	*	*	*	*	*
!	!	!	!	!	!	!LO:LB:g=original	!	!	!	!	!	!	!	!	!
8G\L	7	8dd\	.	8ff\L]	.	8G\	.	8B\L	a-	8f\L]	.	8dd\]	.	.	.
8c\	.	4cc\	.	16ee\L	.	8c\	-men	8c\	.	8e\J	.	8cc\	-men	.	.
.	.	.	.	16gg\JJ	.	.	.	.	.	.	.	.	.	.	.
*	*	*	*	*	*	*	*ij	*	*	*	*	*	*ij	*	*
8F\	6 5	.	.	8aa\L	.	8F\L	a-	8A\	.	4d\	.	(8cc\L	a-	.	.
8G\J	.	8f/	.	8b\J	.	8G\J	.	8G\J	.	.	.	8b\J)	.	.	.
=16	=16	=16	=16	=16	=16	=16	=16	=16	=16	=16	=16	=16	=16	=16	=16
!	!	!LO:TX:t=P:problem=mixed beam	!	!	!	!	!	!	!	!	!	!	!	!	!
8C/	.	8e/L	.	8cc\L	.	8C/	-men	8G/	-men	8e\	-men.	8cc\	-men	1ryy	1ryy
8r	.	8ee\	.	8ccc\	.	8r	.	8r	.	8r	.	8r	.	.	.
*	*	*	*	*	*	*	*Xij	*	*Xij	*	*	*	*Xij	*	*
8G\	.	8f/	.	8dd\	.	8G\	a-	8B\	a-	8g\	a-	8dd\	a-	.	.
8r	.	8dd\J	.	8bb\J	.	8r	.	8r	.	8r	.	8r	.	.	.
!	!	!	!	!LO:LB:g=original	!	!	!	!	!	!	!	!	!	!	!
4C/	.	4ee\	.	4ccc\	.	4C/	-men.	4c\	-men.	4g\	-men.	4ee\	-men.	.	.
4r	.	4r	.	4r	.	4r	.	4r	.	4r	.	4r	.	.	.
==	==	==	==	==	==	==	==	==	==	==	==	==	==	==	==
*-	*-	*-	*-	*-	*-	*-	*-	*-	*-	*-	*-	*-	*-	*-	*-
!!!system-decoration: [(s1,s2)][(s3,s4,s5,s6)][(s7,s8)]s9
!!!EED: Leszek Kubiak
!!!EST: 2020-07-15
!!!AIN: 1 alto 3 empty 1 organ 1 tenor 2 violn 1 vox
!!!ENC: Marcin Jachim
!!!END: 2020-04-27
!!!RDF**kern: | = vertical stroke
